svgs/sharp-light/headphones.svg

<svg xmlns="http://www.w3.org/2000/svg" viewBox="0 0 512 512"><!--! Font Awesome Pro 6.6.0 by @fontawesome - https://fontawesome.com License - https://fontawesome.com/license (Commercial License) Copyright 2024 Fonticons, Inc. --><path d="M256 64C143.2 64 49.8 147.4 34.3 256l93.7 0 0 224L0 480 0 368l0-80C0 146.6 114.6 32 256 32s256 114.6 256 256l0 80 0 112-128 0 0-224 93.7 0C462.2 147.4 368.8 64 256 64zM480 368l0-80-64 0 0 160 64 0 0-80zM32 448l64 0 0-160-64 0 0 80 0 80z"/></svg>

<svg xmlns="http://www.w3.org/2000/svg" viewBox="0 0 512 512"><!--! Font Awesome Pro 6.4.2 by @fontawesome - https://fontawesome.com License - https://fontawesome.com/license (Commercial License) Copyright 2023 Fonticons, Inc. --><path d="M256 64C143.2 64 49.8 147.4 34.3 256H128V480H0V368 288C0 146.6 114.6 32 256 32s256 114.6 256 256v80V480H384V256h93.7C462.2 147.4 368.8 64 256 64zM480 368V288H416V448h64V368zM32 448H96V288H32v80 80z"/></svg>
